X: 115104
Q: "Reel."
M: C
L: 1/8
K: A
uE |\
eAfA gAaA | BcBA AGFE |\
ecfa ecaf | ecdB A2A2 |]
agab agfe | dcde fedc |\
agab agfe | dcde fedc |\
{A}"_Fine"A4 ||



